X:136
T: Medche, waelt te'n Far nien?
N: D0219
O: Europa, Mitteleuropa, Deutschland, Siebenbuergen
N: Variante in D0219A notiert, Inzipit = Variante zum Lied
R: Ehestands - Lied
M: 2/4
L: 1/16
K: F
 |  |  | F2E2F2G2 | A4B4 |
c4c3E | F4z2
F2 | F2E2F2G2 | A2A2A4 |
F2E2F2G2 | A2A2A4 |
c4c3E | F4z4

@@@ Tune index: 2658
